!!!OTL: On Top of Old Smoky
!!!COM: unknown
!!!ODT: unknown
!!!YOR: The Folksong Fake Book
!!!YOY: 2000
!!!AST: Folk song
!!!YEC: Brian Luke, 2001
**kern	**harm
*k[]	*k[]
*M3/4	*M3/4
*C:	*C:
*>A	*>A
4c	.
=1	=1
4c	.
4e	.
4g	.
=2	=2
2.cc	IV
=3	=3
[2.a	.
=4	=4
2a]	.
4a	.
=5	=5
4f	.
4g	.
4a	.
=6	=6
[2.g	I
=7	=7
2.g]	.
=8	=8
2r	.
4c	.
=9	=9
4c	.
4e	.
4g	.
=10	=10
2.g	V7
=11	=11
[2.d	.
=12	=12
2d]	.
8d	.
8e	.
=13	=13
4f	.
4e	.
4d	.
=14	=14
[2.c	I;
=15	=15
2.c]	.
=16	=16
2r	.
*-	*-
